svg/u1f6b1.svg

<svg viewBox="0 0 128 128" xmlns="http://www.w3.org/2000/svg">
  <g>
    <path d="M64,4C30.9,4,4,30.9,4,64s26.9,60,60,60s60-26.9,60-60S97.1,4,64,4z M114,64c0,12-4.2,23-11.3,31.6 L32.4,25.3C41,18.2,52,14,64,14C91.6,14,114,36.4,114,64z M14,64c0-12,4.2-23,11.3-31.6l70.3,70.3C87,109.8,76,114,64,114 C36.4,114,14,91.6,14,64z" fill="#CC3333"/>
    <circle cx="60.1" cy="63.1" r="56.1" fill="#F44336"/>
    <path d="M95.6,102.7C87,109.8,76,114,64,114c-27.6,0-50-22.4-50-50c0-12,4.2-23,11.3-31.6l7.1-7.1 C41,18.2,52,14,64,14c27.6,0,50,22.4,50,50c0,12-4.2,23-11.3,31.6" fill="#FFFFFF"/>
    <path d="M95.6,102.7C87,109.8,76,114,64,114c-27.6,0-50-22.4-50-50c0-12,4.2-23,11.3-31.6l7.1-7.1 C41,18.2,52,14,64,14c27.6,0,50,22.4,50,50c0,12-4.2,23-11.3,31.6" fill="#231F20"/>
    <path d="M96.4,103.2C88.1,110,77.6,114,66.1,114c-26.4,0-47.9-21.5-47.9-47.9c0-11.5,4-22,10.8-30.3 l6.8-6.8c8.2-6.8,18.8-10.8,30.3-10.8c26.4,0,47.9,21.5,47.9,47.9c0,11.5-4,22-10.8,30.3" fill="#414042"/>
    <g>
      <path d="M97.8,41.6l-2.2,1.1c-1,0.5-1.7,1.5-1.7,2.7V46c0,0.8-0.7,1.5-1.5,1.5h-8.2c-0.6,0-1.1-0.3-1.3-0.8 c-1.2-2.6-3.1-4.6-5.5-5.8v-3.1c0-0.4,0.3-0.8,0.8-0.8H85l0,0l0.8,0.4c1,0.5,2.2-0.2,2.2-1.3V32c0-1.1-1.2-1.8-2.2-1.3L85,31l0,0 h-6.8c-0.4,0-0.7-0.3-0.7-0.7c0-1.2-1-2.2-2.2-2.2h-4.5c-1.2,0-2.2,1-2.2,2.2c0,0.4-0.3,0.7-0.7,0.7H61l0,0l-0.8-0.4 c-1-0.5-2.2,0.2-2.2,1.3V36c0,1.1,1.2,1.8,2.2,1.3L61,37l0,0h6.8c0.4,0,0.8,0.3,0.8,0.8v3.1c-2.4,1.2-4.3,3.2-5.5,5.8 c-0.2,0.5-0.8,0.8-1.3,0.8h-6.5c-8.4,0-15.1,6.8-15.1,15.1v2.1c0,1.2,1,2.2,2.2,2.2h4.5c1.2,0,2.2-1,2.2-2.2v-2.1 c0-3.4,2.7-6.1,6.1-6.1h6.1c0.6,0,1.2,0.4,1.4,1c1.7,4.6,5.7,7.8,10.4,7.8s8.7-3.2,10.4-7.8c0.2-0.6,0.8-1,1.4-1h7.7 c0.8,0,1.5,0.7,1.5,1.5v1.7c0,1.1,0.6,2.2,1.7,2.7l2.2,1.1c1,0.5,2.2-0.2,2.2-1.3V43C100,41.9,98.8,41.1,97.8,41.6z" fill="#FAFAFA"/>
      <path d="M58.5,69.7c-0.2,0.1-0.3,0.3-0.3,0.5l-0.8,3.4c-0.1,0.3-0.4,0.6-0.7,0.6H33.1 c-0.3,0-0.7-0.2-0.7-0.6l-0.8-3.4c0-0.2-0.1-0.4-0.3-0.5c-1.9-1.2-3.5,0.3-3.2,1.9l5.5,24.7c0.5,2.2,2.5,3.8,4.8,3.8h13.2 c2.3,0,4.3-1.6,4.8-3.8l5.5-24.7C62.1,70,60.4,68.5,58.5,69.7z M34.2,77.9h21.3c0.5,0,0.8,0.4,0.7,0.9L55,84.4 c-0.1,0.3-0.4,0.6-0.7,0.6H35.5c-0.3,0-0.7-0.2-0.7-0.6l-1.2-5.6C33.4,78.3,33.8,77.9,34.2,77.9z" fill="#FAFAFA"/>
    </g>
    <polyline points="23.4,35.6 95,102.1 97,100.2 30.6,33.4 " opacity="0.8" fill="#231F20" enable-background="new "/>
    <path d="M103.9,96.8L25.3,18.9L18.2,26l78.6,77.9" fill="#F44336"/>
  </g>
  <path d="M45,10.9c1.7-0.4,4.2-1.6,5.9-1.1c1,0.3,1.9,1.5,1.5,2.5c-0.3,0.8-1.1,1.3-2,1.5 c-4.1,1.1-7.7,2.3-11.3,4.1C32,21.6,25.6,27.2,21,33.7c-1.9,2.7-3.4,5.5-5.8,7.8c-0.2,0.2-0.5,0.4-0.8,0.4c-0.2,0-0.4,0-0.5-0.1 c-1.2-0.5-1.4-1.1-1.2-2.3c0.2-1,0.5-2,1-2.9c0.9-1.8,2.2-3.4,3.3-5.1c1.9-2.9,4.1-5.6,6.6-8C30.4,17.2,39.2,12.4,45,10.9z" fill="#FF8A80"/>
  <polygon points="32.4,25.3 30.4,27.3 101.5,98.4 103.3,96.2 " fill="#CC3333"/>
</svg>

<svg viewBox="0 0 128 128" xmlns="http://www.w3.org/2000/svg">
  <defs/>
  <path d="M64,4 C30.9,4 4,30.9 4,64 C4,97.1 30.9,124 64,124 C97.1,124 124,97.1 124,64 C124,30.9 97.1,4 64,4 Z M114,64 C114,76 109.8,87 102.7,95.6 L32.4,25.3 C41,18.2 52,14 64,14 C91.6,14 114,36.4 114,64 Z M14,64 C14,52 18.2,41 25.3,32.4 L95.6,102.7 C87,109.8 76,114 64,114 C36.4,114 14,91.6 14,64 Z" fill="#CC3333"/>
  <path d="M116.2,63.1 A56.1 56.1 0 1 1 4,63.1 A56.1 56.1 0 1 1 116.2,63.1 Z" fill="#F44336"/>
  <path d="M95.6,102.7 C87,109.8 76,114 64,114 C36.4,114 14,91.6 14,64 C14,52 18.2,41 25.3,32.4 L32.4,25.3 C41,18.2 52,14 64,14 C91.6,14 114,36.4 114,64 C114,76 109.8,87 102.7,95.6" fill="#FFFFFF"/>
  <path d="M95.6,102.7 C87,109.8 76,114 64,114 C36.4,114 14,91.6 14,64 C14,52 18.2,41 25.3,32.4 L32.4,25.3 C41,18.2 52,14 64,14 C91.6,14 114,36.4 114,64 C114,76 109.8,87 102.7,95.6" fill="#231F20"/>
  <path d="M96.4,103.2 C88.1,110 77.6,114 66.1,114 C39.7,114 18.2,92.5 18.2,66.1 C18.2,54.6 22.2,44.1 29,35.8 L35.8,29 C44,22.2 54.6,18.2 66.1,18.2 C92.5,18.2 114,39.7 114,66.1 C114,77.6 110,88.1 103.2,96.4" fill="#414042"/>
  <path d="M97.8,41.6 L95.6,42.7 C94.6,43.2 93.9,44.2 93.9,45.4 L93.9,46 C93.9,46.8 93.2,47.5 92.4,47.5 L84.2,47.5 C83.6,47.5 83.1,47.2 82.9,46.7 C81.7,44.1 79.8,42.1 77.4,40.9 L77.4,37.8 C77.4,37.4 77.7,37 78.2,37 L85,37 L85,37 L85.8,37.4 C86.8,37.9 88,37.2 88,36.1 L88,32 C88,30.9 86.8,30.2 85.8,30.7 L85,31 L85,31 L78.2,31 C77.8,31 77.5,30.7 77.5,30.3 C77.5,29.1 76.5,28.1 75.3,28.1 L70.8,28.1 C69.6,28.1 68.6,29.1 68.6,30.3 C68.6,30.7 68.3,31 67.9,31 L61,31 L61,31 L60.2,30.6 C59.2,30.1 58,30.8 58,31.9 L58,36 C58,37.1 59.2,37.8 60.2,37.3 L61,37 L61,37 L67.8,37 C68.2,37 68.6,37.3 68.6,37.8 L68.6,40.9 C66.2,42.1 64.3,44.1 63.1,46.7 C62.9,47.2 62.3,47.5 61.8,47.5 L55.3,47.5 C46.9,47.5 40.2,54.3 40.2,62.6 L40.2,64.7 C40.2,65.9 41.2,66.9 42.4,66.9 L46.9,66.9 C48.1,66.9 49.1,65.9 49.1,64.7 L49.1,62.6 C49.1,59.2 51.8,56.5 55.2,56.5 L61.3,56.5 C61.9,56.5 62.5,56.9 62.7,57.5 C64.4,62.1 68.4,65.3 73.1,65.3 C77.8,65.3 81.8,62.1 83.5,57.5 C83.7,56.9 84.3,56.5 84.9,56.5 L92.6,56.5 C93.4,56.5 94.1,57.2 94.1,58 L94.1,59.7 C94.1,60.8 94.7,61.9 95.8,62.4 L98,63.5 C99,64 100.2,63.3 100.2,62.2 L100.2,43 C100,41.9 98.8,41.1 97.8,41.6 Z" fill="#FAFAFA"/>
  <path d="M58.5,69.7 C58.3,69.8 58.2,70 58.2,70.2 L57.4,73.6 C57.3,73.9 57,74.2 56.7,74.2 L33.1,74.2 C32.8,74.2 32.4,74 32.4,73.6 L31.6,70.2 C31.6,70 31.5,69.8 31.3,69.7 C29.4,68.5 27.8,70 28.1,71.6 L33.6,96.3 C34.1,98.5 36.1,100.1 38.4,100.1 L51.6,100.1 C53.9,100.1 55.9,98.5 56.4,96.3 L61.9,71.6 C62.1,70 60.4,68.5 58.5,69.7 Z M34.2,77.9 L55.5,77.9 C56,77.9 56.3,78.3 56.2,78.8 L55,84.4 C54.9,84.7 54.6,85 54.3,85 L35.5,85 C35.2,85 34.8,84.8 34.8,84.4 L33.6,78.8 C33.4,78.3 33.8,77.9 34.2,77.9 Z" fill="#FAFAFA"/>
  <path d="M23.4,35.6 L95,102.1 L97,100.2 L30.6,33.4" fill="#231F20" opacity="0.8"/>
  <path d="M103.9,96.8 L25.3,18.9 L18.2,26 L96.8,103.9" fill="#F44336"/>
  <path d="M45,10.9 C46.7,10.5 49.2,9.3 50.9,9.8 C51.9,10.1 52.8,11.3 52.4,12.3 C52.1,13.1 51.3,13.6 50.4,13.8 C46.3,14.9 42.7,16.1 39.1,17.9 C32,21.6 25.6,27.2 21,33.7 C19.1,36.4 17.6,39.2 15.2,41.5 C15,41.7 14.7,41.9 14.4,41.9 C14.2,41.9 14,41.9 13.9,41.8 C12.7,41.3 12.5,40.7 12.7,39.5 C12.9,38.5 13.2,37.5 13.7,36.6 C14.6,34.8 15.9,33.2 17,31.5 C18.9,28.6 21.1,25.9 23.6,23.5 C30.4,17.2 39.2,12.4 45,10.9 Z" fill="#FF8A80"/>
  <path d="M32.4,25.3 L30.4,27.3 L101.5,98.4 L103.3,96.2 Z" fill="#CC3333"/>
</svg>
